X:1
T:The Sixth Station
T:from Spirited Away
T:The Sixth Station from Spirited Away 
T:Joe Hisaishi
C:Joe Hisaishi
%%score { ( 1 4 ) | ( 2 3 ) }
L:1/8
Q:1/4=80
M:4/4
K:G
V:1 treble nm="Piano" snm="Pno."
V:4 treble 
V:2 bass 
V:3 bass 
V:1
!p!"^ ≈ 80" !arpeggio![FBead']8 |!mp! z8 | z8 | z4 z2 z d | e8 | z8 | z8 | z bea- a4- | agBe- e4 | %9
 z bab e' b3- | b3 a b2 z/ a/g/f/ | e6 z d | eB- B6- || B2!pp! g4 b2 | c'4 d'4 | z2 d'6 | c'4 b4 || %17
!mp! z4 z2 z (3d/c/_B/ | A6 z c | =f8 | z8 ||!p!!8va(! [d'g']4 [c'=f']2 [_b_e']2 | [ad']8 | %23
 [c'=f']4 [_b_e']2 [_a_d']2 | [gc']8!8va)! | [_b_e']4 [_a_d']4 | [gc']8 | [=f_b]8 | %28
 D_Beg !arpeggio![_Degc']4 ||!mf! [Gg][_A_a][Gg][Aa] [Gg][Aa][Gg][Aa] | %30
 [_e_e'][_A_a][Gg][Aa] [ee'][Aa][Gg][Aa] | [_e_e'][_A_a][Gg][Aa] [ee'][Aa][Gg][Aa] | %32
 [_e_e'][_A_a][Gg][Aa] [ee'][Aa][Gg][Aa] |!>(! [Gg][_A_a][Gg][Aa] [Gg][Aa][Gg][Aa]!>)! | %34
"_rit." z8 | z8 | z8 ||"_a tempo" D6 z B | f6 E2- | E2 F2 z2 z e | [da]4 B2 d'2 | [Ab]6 z a | %42
 be- e6 |!8va(! !///-!d4 d'4 | !///-!e2 e'2 !///-!f f' !///-!g g' | !///-!a4 a'4 | !///-!b4 b'4 | %47
 !///-!b2 b'2 !//-!b/b'/ !arpeggio![aa'] !arpeggio![d'd'']!arpeggio![bb'] | %48
 !///-!e2 e'2 !///-!f2 f'2!8va)! | z bea- a4- | agBe- e4 | z bab e' b3 | [fd']3 a b2 z/ a/g/f/ | %53
 e6 z d | e B3 [ea]4 ||!p! [gb]e[ac']e [bd']e[ac']e | [gb]e[fa]e [gb]e[eg]e | %57
!<(! [fa]e[gb]e [bd']e[c'e']e!<)! |!>(! [bd']e[gb]e [fa]e[bd']e!>)! | [gb]e[ac']e [bd']e[ac']e | %60
 [gb]e[fa]e [gb]e[eg]e |!<(! [fa]e[gb]e [bd']e[c'e']e!<)! |!>(! [bd']e[gb]e [fa]e[bd']e!>)! | %63
!<(! [gb]e[fa]e [gb]e[bd']e!<)! | [d'f']e[c'e']e [bd']e[ac']e | %65
!sfz! [ead'] [dfb]3!sfz! [af'] [ab]3 |!p! !tenuto![EAB]8 | z2 Ad !arpeggio![aa']4 |] %68
V:2
 z8 | E,,B,,G,E D F,3- | F,8 | E,,C,G,E D F,3- | F,8 | C,,A,,G,D C E,3 | D,,A,,G,D C F,3 | %7
 E,,B,,G,E D F,3- | F,8 | E,,C,G,E D F,3- | F,8 | C,,A,,G,D C E,3 | D,,A,,G,D C F,3- || F,2 z2 z4 | %14
 z8 | z8 | z8 || G,,D,A,=F- F4 | G,,_E,A,=F- F4 | [G,,_A,]=F,A,=F- F4 | [G,,F,]_E,A,F- F4 || z8 | %22
 z8 | z8 | z8 | z8 | z8 | z8 | z8 || =F,,C,G,_E _D =F,3 | _E,,_B,,G,_E _D =F,3 | %31
 _D,,_A,,G,_E _D =F,3 | C,,G,,G,_E _D E,3- | E,8 | G,2 _B,6 | A,4 =F,4 | G,4 !arpeggio![G,B,E]4 || %37
 E,,B,,G,E D F,3- | F,8 | E,,C,G,E D F,3- | F,8 | C,,A,,G,D C E,3 | D,,A,,G,D C F,3 | %43
 E,,B,,G,E D F,3- | F,8 | E,,B,,G,E D F,3- | F,8 | C,,A,,G,D C E,3 | D,,A,,G,D C F,3 | %49
 E,,B,,G,E D F,3- | F,8 | E,,B,,G,E D F,3- | F,8 | C,,A,,G,D C E,3 | D,,A,,G,D C F,3 || z8 | z8 | %57
 z8 | z8 | E,,B,,G,E D F,3- | F,8 | E,,C,G,E D F,3- | F,8 | C,,A,,G,D C E,3 | D,,A,,G,D C F,3 | %65
 z8 | z4 E,,B,,G,E | DF,- F,6 |] %68
V:3
 x8 | x8 | x8 | x8 | z2 A,2 G,2 F,2 | E,8 | x8 | x8 | x8 | x8 | x8 | x8 | x8 || x8 | x8 | x8 | %16
 x8 || x8 | x8 | x8 | x8 || x8 | x8 | x8 | x8 | x8 | x8 | x8 | x8 || x8 | x8 | x8 | x8 | x8 | %34
 [C,,G,,]8 | [D,,A,,]8 | [E,,B,,]8 || x8 | x8 | x8 | x8 | x8 | x8 | x8 | x8 | x8 | x8 | x8 | x8 | %49
 x8 | x8 | x8 | x8 | x8 | x8 || x8 | x8 | x8 | x8 | x8 | x8 | x8 | x8 | x8 | x4 _E,4 | x8 | x8 | %67
 x8 |] %68
V:4
 x8 | x8 | x8 | x8 | x8 | x8 | x8 | x8 | x8 | x8 | x8 | x8 | x8 || x8 | g8 | e4 [e=f]4- | %16
 [ef]4 [e=f]4 || x8 | x8 | x8 | x8 ||!8va(! [=ea]4 [dg]4 | [^c^f]8 | [dg]4 [c=f]4 | [Be]8!8va)! | %25
 [Gc=f]4 [=F_B_e]4 | [EAd]8 | [_E_A_d]8 | [egc']8 || x8 | x8 | x8 | x8 | x8 | x8 | x8 | x8 || x8 | %38
 x8 | x8 | x8 | x8 | x8 |!8va(! x8 | x8 | x8 | x8 | x8 | x8!8va)! | x8 | x8 | x8 | x8 | x8 | x8 || %55
 x8 | x8 | x8 | x8 | x8 | x8 | x8 | x8 | x8 | x8 | B A3 [Fde]4 | x8 | x8 |] %68

